brandFactory_export/1.Light/Servicio tecnico telefonia fija_1Light.svg

<?xml version="1.0" encoding="UTF-8"?>
<svg width="24px" height="24px" viewBox="0 0 24 24" version="1.1" xmlns="http://www.w3.org/2000/svg" xmlns:xlink="http://www.w3.org/1999/xlink">
    <title>1.Light/Servicio tecnico telefonia fija_1Light</title>
    <g id="Symbols" stroke="none" stroke-width="1" fill="none" fill-rule="evenodd">
        <g id="1.Light/Servicio-tecnico-telefonia-fija_1Light" fill="#5CB615" fill-rule="nonzero">
            <path d="M7.5092437,1.42521008 C7.86554622,1.77478992 8.17478992,2.16806723 8.4302521,2.59495798 C9.68067227,4.60504202 8.65882353,6.31260504 7.57983193,7.38823529 C7.38487395,7.58655462 7.17983193,7.76806723 6.95798319,7.93613445 C6.64889789,8.30504272 6.75714441,9.24901452 8.92025813,11.6388028 L13.7680672,6.79663866 C13.8184874,6.72941176 13.8487395,6.6487395 13.8621849,6.56806723 C13.8655462,6.18151261 13.902521,5.79495798 13.9731092,5.41512605 C14.1344538,4.52436975 14.4436975,3.84537815 14.8907563,3.39831933 C15.3310924,2.95798319 16,2.65210084 16.8739496,2.48739496 C17.2638655,2.41344538 17.6571429,2.37310924 18.0537815,2.36638655 L18.0537815,2.36638655 C18.4436975,2.36638655 18.7529412,2.55462185 18.8806723,2.86722689 C19.0084034,3.17983193 18.9210084,3.53277311 18.6487395,3.80504202 L18.6487395,3.80504202 L17.8352941,4.61848739 C17.8084034,4.66218487 17.794958,4.7092437 17.7882353,4.75966387 L17.7882353,4.75966387 L17.9428571,5.83529412 L19.0184874,5.98991597 C19.0689076,5.98319328 19.1159664,5.9697479 19.1596639,5.94285714 L19.1596639,5.94285714 L19.9764706,5.13277311 C20.2151261,4.89411765 20.4571429,4.84369748 20.6184874,4.84369748 C21.0117647,4.84369748 21.4117647,5.14621849 21.4151261,5.72436975 C21.4117647,6.11092437 21.3747899,6.49747899 21.3042017,6.87731092 C21.1428571,7.76806723 20.8336134,8.44705882 20.3865546,8.89411765 C19.9462185,9.33445378 19.2773109,9.64033613 18.4033613,9.80504202 C18.0134454,9.87563025 17.6168067,9.91596639 17.2201681,9.92268908 L17.2201681,9.92268908 C17.1327731,9.93613445 17.0554622,9.9697479 16.9882353,10.0168067 L16.9882353,10.0168067 L12.139,14.8652006 L12.2666365,14.9814952 C14.5652862,17.0351058 15.4802139,17.1333843 15.8420168,16.8302521 C16.010084,16.6117647 16.194958,16.4033613 16.3932773,16.2084034 C17.4689076,15.1327731 19.1764706,14.1109244 21.1865546,15.3579832 C21.6134454,15.6134454 22.0067227,15.9226891 22.3563025,16.2789916 C24.2487395,18.1747899 24.2521008,20.1378151 22.3596639,22.1176471 C22.1344538,22.3529412 21.805042,22.6252101 21.3815126,22.9344538 L21.3546218,22.9546218 L21.3378151,22.9680672 C20.702521,23.3983193 19.8857143,23.6168067 18.9344538,23.6168067 C18.0773109,23.6168067 17.112605,23.4386555 16.0739496,23.0823529 C13.7628678,22.291983 11.1870939,20.664524 8.62565015,18.3805199 L7.64705882,19.3579832 C7.59663866,19.4252101 7.56638655,19.5058824 7.55294118,19.5865546 C7.54957983,19.9731092 7.51260504,20.3596639 7.44201681,20.7394958 C7.28067227,21.6302521 6.97142857,22.3092437 6.52436975,22.7563025 C6.08403361,23.1966387 5.41512605,23.502521 4.54117647,23.6672269 C4.1512605,23.7378151 3.75462185,23.7781513 3.35798319,23.7848739 L3.35798319,23.7848739 C2.96806723,23.7815126 2.65882353,23.5932773 2.53109244,23.2806723 C2.40336134,22.9680672 2.4907563,22.6151261 2.76302521,22.3428571 L2.76302521,22.3428571 L3.57310924,21.5327731 C3.6,21.4890756 3.61680672,21.4420168 3.62016807,21.3915966 L3.62016807,21.3915966 L3.46554622,20.3159664 L2.39327731,20.1613445 C2.34285714,20.1680672 2.29579832,20.1815126 2.25210084,20.2084034 L2.25210084,20.2084034 L1.43865546,21.0218487 C1.2,21.2605042 0.957983193,21.3109244 0.796638655,21.3109244 C0.403361344,21.3109244 0.00336134438,21.005042 -1.58459912e-10,20.4235294 C0.00336134438,20.0369748 0.0403361343,19.6504202 0.11092437,19.2705882 C0.272268907,18.3798319 0.581512605,17.7008403 1.02857143,17.2537815 C1.46890756,16.8134454 2.13781513,16.507563 3.01176471,16.3428571 C3.40168067,16.2722689 3.79831933,16.2319328 4.19495798,16.2252101 L4.19495798,16.2252101 C4.28235294,16.2117647 4.35966387,16.1781513 4.42689076,16.1310924 L4.42689076,16.1310924 L5.401,15.1562006 L5.14316294,14.8641488 C3.00068437,12.4051677 1.47014595,9.94745688 0.705882353,7.73109244 C-0.0537815127,5.52941176 -0.0134453783,3.65378151 0.820168067,2.44705882 C0.823529412,2.44033613 0.830252101,2.43361345 0.833613445,2.4302521 L0.853781512,2.40336134 C1.15966387,1.97647059 1.43529412,1.64705882 1.67058824,1.42184874 C3.65042017,-0.470588235 5.61344538,-0.467226891 7.5092437,1.42521008 Z M18.0537815,3.03865546 C17.9932773,3.03865546 16.1915966,3.0487395 15.3613445,3.86890756 C14.5210084,4.7092437 14.5277311,6.56134454 14.5277311,6.56134454 C14.5277311,6.78655462 14.4,7.10252101 14.2386555,7.26386555 L14.2386555,7.26386555 L4.90084034,16.605042 C4.7394958,16.7630252 4.42352941,16.8941176 4.19831933,16.8941176 L4.19831933,16.8941176 C4.13109244,16.8941176 2.32941176,16.9008403 1.50252101,17.7277311 C0.662184874,18.5680672 0.668905896,20.4201681 0.668905896,20.4201681 C0.668905896,20.5579832 0.719327731,20.6319328 0.793277311,20.6319328 C0.840336134,20.6319328 0.897478991,20.6016807 0.961344538,20.5411765 L0.961344538,20.5411765 L1.7815126,19.7243697 C1.92268908,19.5831933 2.18487395,19.4857143 2.39663866,19.4857143 C2.42352941,19.4857143 2.45378151,19.4890756 2.48067227,19.492437 L2.48067227,19.492437 L3.65378151,19.6605042 C3.8789916,19.6941176 4.08739496,19.902521 4.1210084,20.1277311 L4.1210084,20.1277311 L4.28907563,21.3008403 C4.32268908,21.5260504 4.21848739,21.8386555 4.05714286,22 L4.05714286,22 L3.24033613,22.8168067 C3.0789916,22.9747899 3.13613445,23.1092437 3.36134454,23.1092437 C3.42184874,23.1092437 5.22352941,23.102521 6.05042017,22.2756303 C6.8907563,21.4352941 6.88403361,19.5831933 6.88403361,19.5831933 C6.88403361,19.3579832 7.01176471,19.0420168 7.17310924,18.8806723 L7.17310924,18.8806723 L16.5142857,9.54285714 C16.6756303,9.38487395 16.9915966,9.25378151 17.2168067,9.25378151 L17.2168067,9.25378151 L17.237711,9.25367653 C17.4354975,9.25164652 19.1183047,9.21110705 19.9092437,8.42016807 C20.6795518,7.64985994 20.7380966,6.02938842 20.7425047,5.7646592 L20.7428588,5.72773109 C20.7428588,5.58991597 20.692437,5.51596639 20.6184874,5.51596639 C20.5714286,5.51596639 20.5109244,5.54285714 20.4504202,5.60672269 L20.4504202,5.60672269 L19.6336134,6.42352941 C19.492437,6.56470588 19.2302521,6.66218487 19.0184874,6.66218487 C18.9915966,6.66218487 18.9613445,6.65882353 18.9344538,6.65546218 L18.9344538,6.65546218 L17.7613445,6.48739496 C17.5361345,6.45378151 17.3277311,6.24537815 17.2941176,6.02016807 L17.2941176,6.02016807 L17.1260504,4.84705882 C17.092437,4.62184874 17.1966387,4.3092437 17.3579832,4.14789916 L17.3579832,4.14789916 L18.1747899,3.33109244 C18.3361345,3.1697479 18.2789916,3.03865546 18.0537815,3.03865546 Z M11.663116,15.3443699 L9.1,17.9042006 L9.40924823,18.1753599 C11.793673,20.2434321 14.1652366,21.717824 16.292437,22.4470588 C18.2722689,23.1260504 19.9260504,23.112605 20.9478992,22.4134454 L20.9915966,22.3831933 C21.3848739,22.1008403 21.6806723,21.8521008 21.8756303,21.6504202 C22.7193277,20.7663866 23.1226891,19.9394958 23.1092437,19.1226891 C23.0957983,18.3394958 22.692437,17.5630252 21.8823529,16.7529412 C21.5731092,16.4369748 21.2268908,16.1613445 20.8470588,15.9361345 L20.8369748,15.9294118 C20.194958,15.5294118 19.5428571,15.3815126 18.9042017,15.4890756 C18.2285714,15.6033613 17.5462185,16.0033613 16.8672269,16.6823529 C16.6823529,16.8638655 16.5109244,17.0621849 16.3529412,17.2672269 C16.3428571,17.2806723 16.3294118,17.2941176 16.3159664,17.307563 C15.8252101,17.7613445 15.0991597,17.7344538 14.1546218,17.2302521 C13.4779221,16.8656226 12.6599694,16.2505903 11.663116,15.3443699 Z M4.66554622,0.668907563 C3.8487395,0.65210084 3.02184874,1.05546218 2.13781513,1.90252101 C1.92941176,2.10420168 1.68067227,2.4 1.40168067,2.79327731 C1.38823529,2.81008403 1.37815126,2.82352941 1.37142857,2.83697479 C0.668907563,3.86554622 0.658823529,5.52605042 1.34453782,7.51260504 C2.10625946,9.72522505 3.67346144,12.1998688 5.87795277,14.6794896 L8.446,12.1142006 L8.27266768,11.9216114 C7.45898693,11.0077264 6.89691877,10.2515406 6.55798319,9.61680672 C6.05378151,8.67563025 6.0302521,7.95294118 6.48067227,7.46218487 C6.49411765,7.4487395 6.50420168,7.43529412 6.5210084,7.42521008 C6.72941176,7.26722689 6.92436975,7.09579832 7.10588235,6.91092437 C7.7815126,6.23529412 8.18487395,5.54957983 8.29915966,4.87394958 C8.40672269,4.23529412 8.25882353,3.58655462 7.85882353,2.94117647 L7.85210084,2.93109244 C7.62689076,2.5512605 7.3512605,2.20504202 7.03529412,1.89579832 C6.22521008,1.08571429 5.4487395,0.682352941 4.66554622,0.668907563 Z" id="Servicio-tecnico-telefonia-fija_1Light"></path>
        </g>
    </g>
</svg>

<svg width="24" height="24" viewBox="0 0 24 24" xmlns="http://www.w3.org/2000/svg"><path d="M7.51 1.425c.356.35.665.743.92 1.17 1.25 2.01.229 3.718-.85 4.793-.195.199-.4.38-.622.548-.31.369-.2 1.313 1.962 3.703l4.848-4.842a.525.525 0 00.094-.229c.004-.386.04-.773.111-1.153.161-.89.47-1.57.918-2.017.44-.44 1.109-.746 1.983-.91.39-.075.783-.115 1.18-.122.39 0 .699.189.827.501.127.313.04.666-.232.938l-.814.813a.351.351 0 00-.047.142l.155 1.075 1.075.155a.351.351 0 00.142-.047l.816-.81c.24-.239.481-.29.642-.29.394 0 .794.303.797.881-.003.387-.04.773-.11 1.153-.162.891-.471 1.57-.918 2.017-.44.44-1.11.746-1.984.911-.39.07-.786.111-1.183.118a.546.546 0 00-.232.094l-4.849 4.848.128.116c2.298 2.054 3.213 2.152 3.575 1.85.168-.22.353-.428.551-.623 1.076-1.075 2.783-2.097 4.794-.85.426.255.82.565 1.17.921 1.892 1.896 1.895 3.859.003 5.839-.226.235-.555.507-.978.816l-.027.02-.017.014c-.635.43-1.452.649-2.404.649-.857 0-1.821-.178-2.86-.535-2.311-.79-4.887-2.417-7.448-4.701l-.979.977a.525.525 0 00-.094.229c-.003.386-.04.773-.111 1.152-.161.891-.47 1.57-.918 2.017-.44.44-1.109.747-1.983.911-.39.07-.786.111-1.183.118-.39-.003-.7-.192-.827-.504-.128-.313-.04-.666.232-.938l.81-.81a.307.307 0 00.047-.141l-.154-1.076-1.073-.155a.351.351 0 00-.14.047l-.814.814c-.239.239-.481.289-.642.289-.394 0-.794-.306-.797-.887.003-.387.04-.774.11-1.153.162-.891.472-1.57.919-2.017.44-.44 1.109-.746 1.983-.911.39-.07.786-.111 1.183-.118a.546.546 0 00.232-.094l.974-.975-.258-.292C3.001 12.405 1.47 9.947.706 7.731c-.76-2.202-.72-4.077.114-5.284.004-.007.01-.013.014-.017l.02-.027c.306-.427.581-.756.817-.981 1.98-1.893 3.942-1.89 5.838.003zM18.053 3.04c-.06 0-1.862.01-2.693.83-.84.84-.833 2.692-.833 2.692 0 .226-.128.542-.29.703l-9.337 9.341a1.16 1.16 0 01-.703.29c-.067 0-1.869.006-2.695.833-.84.84-.834 2.692-.834 2.692 0 .138.05.212.124.212.047 0 .104-.03.168-.09l.82-.818a.953.953 0 01.616-.238c.027 0 .057.003.084.006l1.173.169a.588.588 0 01.467.467l.168 1.173a.92.92 0 01-.232.699l-.817.817c-.161.158-.104.292.121.292.06 0 1.863-.006 2.69-.833.84-.84.833-2.693.833-2.693 0-.225.128-.541.29-.702l9.34-9.338a1.16 1.16 0 01.703-.29h.02c.198-.001 1.881-.042 2.672-.833.77-.77.83-2.39.834-2.655v-.037c0-.138-.05-.212-.125-.212-.047 0-.107.027-.168.09l-.816.818a.953.953 0 01-.616.238.708.708 0 01-.084-.007l-1.173-.168a.588.588 0 01-.467-.467l-.168-1.173a.92.92 0 01.232-.7l.817-.816c.161-.161.104-.292-.121-.292zm-6.39 12.305L9.1 17.904l.31.271c2.384 2.068 4.755 3.543 6.882 4.272 1.98.68 3.634.666 4.656-.034l.044-.03a6.71 6.71 0 00.884-.733c.843-.884 1.247-1.71 1.233-2.527-.013-.784-.417-1.56-1.227-2.37a5.063 5.063 0 00-1.035-.817l-.01-.007c-.642-.4-1.294-.547-1.933-.44-.675.114-1.358.514-2.037 1.193-.185.182-.356.38-.514.585-.01.014-.024.027-.037.04-.49.454-1.217.427-2.161-.077-.677-.364-1.495-.98-2.492-1.886zM4.665.67c-.817-.017-1.644.386-2.528 1.234a6.49 6.49 0 00-.767.934C.67 3.866.66 5.527 1.345 7.513c.761 2.212 2.328 4.687 4.533 7.166l2.568-2.565-.173-.192c-.814-.914-1.376-1.67-1.715-2.305-.504-.941-.528-1.664-.077-2.155.013-.013.023-.027.04-.037.208-.158.403-.33.585-.514.676-.676 1.079-1.361 1.193-2.037.108-.639-.04-1.287-.44-1.933l-.007-.01c-.225-.38-.5-.726-.817-1.035-.81-.81-1.586-1.214-2.37-1.227z" fill="#5CB615" fill-rule="nonzero"/></svg>
